X:1
T:Title
%%score { ( 1 2 ) | ( 3 4 ) }
L:1/8
Q:1/4=174
M:6/4
K:G
V:1 treble nm="Grand Piano"
V:2 treble 
V:3 bass 
V:4 bass 
V:1
 [B,D]4 [B,G]2 F3 G [CA]2 | [DG]4 [DB]2 A3 c [Ee]2 | G4 F2 G4 A2 | [GB]4 [G_B]2 [FA]6 | z6 .F6 | %5
w: J.~H.~Fillmore * * * *|||||
 [DG]4 [DB]2 A3 c [Ee]2 | G4 F2 G4 A2 | [DGB]4 [CFA]2 [B,G]6 | [A,FA]4 [Fd]2 [G^c]4 [A,GA]2 | %9
w: ||||
 [DA]4 [Af]2 e3 d B2 | A4 A2 B4 A2 | [^CGB]4 [A,CG]2 [A,DF]6 | [DFA]4 [Fd]2 [G^c]4 [A,GA]2 | %13
w: ||||
 [DA]4 [Af]2 e3 d B2 | A4 A2 B4 A2 | [^CGB]4 [CA]2 z4 =C2 | [G,B,D]4 [B,G]2 F3 G [CA]2 | %17
w: ||||
 [DG]4 [DB]2 A3 c [Ee]2 | G4 F2 G4 A2 | [GB]4 [G_B]2 [FA]6 | z6 .F6 | [DG]4 [DB]2 A3 c [Ee]2 | %22
w: |||||
 G4 F2 G4 A2 |[M:10/4] [DGB]4 [CFA]2 [B,G]6 z8 |] %24
w: ||
V:2
 z6 .C6 | z6 .E6 | x12 | x12 | [B,D]4 [B,G]2 C3- [CG] [CA]2 | z6 .E6 | x12 | x12 | x12 | x12 | %10
 x12 | x12 | x12 | x12 | x12 | z6 D6 | z6 .C6 | z6 .E6 | x12 | x12 | [B,D]4 [B,G]2 C3- [CG] [CA]2 | %21
 z6 .E6 | x12 |[M:10/4] x20 |] %24
V:3
 [G,,G,]4 [G,,D,]2 [A,,D,]4 [A,,D,]2 | [B,,G,]4 [B,,G,]2 [C,G,]4 [C,A,]2 | %2
 [D,B,D]4 [D,A,D]2 [D,B,D]4 [D,CD]2 | [D,D]4 [D,D]2 [D,D]6 | [G,,G,]4 [G,,D,]2 [A,,D,]4 [A,,D,]2 | %5
 [B,,G,]4 [B,,G,]2 [C,G,]4 [C,A,]2 | [D,B,D]4 [D,A,D]2 [D,B,D]4 [D,CD]2 | D,4 D,2 G,,6 | %8
 D,4 [D,A,]2 z2 z[K:treble] B[K:bass] E,2 | F,4 [F,D]2[K:treble] [G,B,G]4 [G,DG]2 | %10
 [A,DF]4 [A,DF]2 [A,^CG]4 [A,CG]2 | z2 z A A,,2 D,6 | D,4 [D,A,]2 z2 z[K:treble] B[K:bass] E,2 | %13
 F,4 [F,^C]2[K:treble] [G,B,G]4 [G,DG]2 | [A,DF]4 [A,DF]2 [A,^CG]4 [A,CG]2 | z6 .F,6 | %16
 G,,4 [G,,D,]2 [A,,D,]4 [A,,D,]2 | [B,,G,]4 [B,,G,]2 [C,G,]4 [C,A,]2 | %18
 [D,B,D]4 [D,A,D]2 [D,B,D]4 [D,CD]2 | [D,D]4 [D,D]2 [D,D]6 | [G,,G,]4 [G,,D,]2 [A,,D,]4 [A,,D,]2 | %21
 [B,,G,]4 [B,,G,]2 [C,G,]4 [C,A,]2 | [D,B,D]4 [D,A,D]2 [D,B,D]4 [D,CD]2 | %23
[M:10/4] D,4 D,2 G,,6 z8 |] %24
V:4
 x12 | x12 | x12 | x12 | x12 | x12 | x12 | x12 | z6 .[E,A,]6[K:treble][K:bass] | x6[K:treble] x6 | %10
 x12 | .A,,6 z6 | z6 .[E,A,]6[K:treble][K:bass] | x6[K:treble] x6 | x12 | %15
 A,,4 [A,,G,]2 D,4- [D,A,]2 | x12 | x12 | x12 | x12 | x12 | x12 | x12 |[M:10/4] x20 |] %24

